images/hero-clouds.svg

<svg width="375" height="167" viewBox="0 0 375 167" fill="none" xmlns="http://www.w3.org/2000/svg">
<path d="M71.8578 141.194C71.6603 141.194 71.4629 141.194 71.2654 141.225C70.1607 139.658 68.7034 138.368 67.0091 137.459C65.3148 136.549 63.4303 136.044 61.5053 135.984C60.5056 133.863 58.918 132.069 56.9283 130.811C54.9387 129.554 52.6294 128.886 50.271 128.885C49.8389 128.885 49.4071 128.908 48.9774 128.952C47.652 126.266 45.5945 124.004 43.0386 122.421C40.4828 120.838 37.5312 120 34.5193 120C31.33 120 28.2126 120.94 25.5622 122.702C22.9118 124.464 20.8479 126.968 19.6322 129.896C18.5629 130.144 17.5323 130.536 16.5684 131.059C15.4088 129.597 13.9304 128.415 12.2445 127.603C10.5587 126.791 8.70923 126.369 6.83545 126.369C3.98504 126.37 1.22171 127.345 -0.990231 129.13C-3.20217 130.916 -4.72792 133.403 -5.31113 136.174C-6.68035 135.923 -8.08256 135.906 -9.45758 136.123C-11.1475 136.394 -12.7624 137.01 -14.1999 137.933C-15.6374 138.856 -16.8661 140.066 -17.8084 141.485C-18.4706 141.285 -19.1588 141.182 -19.8509 141.181C-21.747 141.181 -23.5654 141.929 -24.9061 143.26C-26.2468 144.592 -27 146.398 -27 148.28C-27 150.163 -26.2468 151.969 -24.9061 153.301C-23.5654 154.632 -21.747 155.38 -19.8509 155.38C-19.1591 155.377 -18.4712 155.276 -17.8084 155.079C-16.4935 157.062 -14.6295 158.626 -12.4406 159.581C-10.2518 160.537 -7.83149 160.844 -5.47115 160.465C-4.02356 160.233 -2.62889 159.747 -1.35192 159.031C0.0611134 161.455 2.09106 163.467 4.53431 164.866C6.97757 166.264 9.74821 167 12.5683 167C15.0786 167.002 17.5544 166.419 19.7974 165.3C22.0403 164.18 23.988 162.555 25.4843 160.553C26.4719 161.046 27.5619 161.303 28.6673 161.303C29.8432 161.305 31.0011 161.017 32.0376 160.465C34.9478 162.94 38.6539 164.299 42.4854 164.295C44.7858 164.297 47.0596 163.807 49.1529 162.86C51.2462 161.913 53.1101 160.53 54.6183 158.805C56.5698 160 58.8179 160.631 61.1104 160.627C63.1037 160.626 65.0671 160.147 66.8339 159.23C68.6008 158.314 70.1186 156.987 71.2586 155.363C71.4561 155.38 71.6535 155.394 71.851 155.394C73.747 155.394 75.5654 154.646 76.9061 153.314C78.2468 151.983 79 150.177 79 148.294C79 146.412 78.2477 144.607 76.9085 143.276C75.5693 141.945 73.7526 141.196 71.8578 141.194Z" fill="white"/>
<path d="M395.543 12.5144C395.288 12.5144 395.034 12.5144 394.779 12.5539C393.354 10.5199 391.474 8.84593 389.288 7.66502C387.102 6.48411 384.67 5.82876 382.187 5.75103C380.897 2.99719 378.849 0.667637 376.282 -0.964725C373.715 -2.59709 370.735 -3.46466 367.693 -3.4658C367.135 -3.46547 366.578 -3.43617 366.024 -3.37801C364.314 -6.86491 361.659 -9.80255 358.362 -11.857C355.064 -13.9115 351.256 -15.0004 347.37 -15C343.256 -15.0001 339.234 -13.7792 335.814 -11.4921C332.395 -9.20504 329.732 -5.95479 328.163 -2.1535C326.784 -1.83042 325.454 -1.32255 324.211 -0.64369C322.714 -2.54128 320.807 -4.07503 318.632 -5.12946C316.457 -6.18389 314.071 -6.73155 311.653 -6.73119C307.976 -6.73032 304.411 -5.46464 301.557 -3.14682C298.703 -0.829002 296.735 2.3997 295.982 5.99681C294.216 5.67137 292.407 5.64911 290.633 5.93098C288.452 6.28255 286.369 7.08281 284.514 8.28105C282.66 9.47929 281.074 11.0494 279.859 12.8919C279.004 12.6321 278.117 12.4991 277.223 12.4969C274.777 12.4969 272.431 13.4679 270.701 15.1964C268.972 16.9249 268 19.2692 268 21.7137C268 24.1582 268.972 26.5025 270.701 28.231C272.431 29.9595 274.777 30.9305 277.223 30.9305C278.116 30.927 279.004 30.7955 279.859 30.5399C281.555 33.1145 283.96 35.1442 286.784 36.3847C289.608 37.6251 292.731 38.0234 295.776 37.5315C297.643 37.23 299.443 36.5999 301.09 35.6706C302.913 38.8171 305.532 41.4291 308.685 43.2448C311.837 45.0605 315.411 46.016 319.05 46.0154C322.289 46.0177 325.483 45.2618 328.377 43.8083C331.27 42.3549 333.783 40.2443 335.714 37.6456C336.988 38.2857 338.394 38.6193 339.82 38.62C341.337 38.6216 342.831 38.2477 344.168 37.5315C347.923 40.7446 352.705 42.5085 357.648 42.5042C360.616 42.5062 363.549 41.8707 366.25 40.641C368.951 39.4113 371.356 37.6159 373.301 35.3765C375.819 36.9276 378.72 37.7468 381.677 37.7422C384.249 37.7404 386.782 37.1182 389.062 35.9285C391.341 34.7388 393.299 33.0167 394.77 30.9086C395.025 30.9305 395.28 30.9481 395.534 30.9481C397.981 30.9481 400.327 29.977 402.056 28.2485C403.786 26.52 404.758 24.1757 404.758 21.7313C404.758 19.2883 403.787 16.9453 402.06 15.2171C400.332 13.4888 397.988 12.5168 395.543 12.5144Z" fill="#E6F6FF"/>
</svg>

<svg width="375" height="167" fill="none" xmlns="http://www.w3.org/2000/svg"><path d="M71.858 141.194c-.198 0-.395 0-.593.031a12.352 12.352 0 0 0-4.256-3.766 12.453 12.453 0 0 0-5.504-1.475 12.355 12.355 0 0 0-4.577-5.173 12.476 12.476 0 0 0-7.95-1.859 16.029 16.029 0 0 0-5.94-6.531A16.18 16.18 0 0 0 34.52 120c-3.189 0-6.306.94-8.957 2.702a16.018 16.018 0 0 0-5.93 7.194c-1.07.248-2.1.64-3.064 1.163a12.369 12.369 0 0 0-4.324-3.456A12.466 12.466 0 0 0-.99 129.13a12.316 12.316 0 0 0-4.321 7.044 12.334 12.334 0 0 0-4.147-.051c-1.69.271-3.304.887-4.742 1.81a12.325 12.325 0 0 0-3.608 3.552 7.101 7.101 0 0 0-2.043-.304 7.176 7.176 0 0 0-5.055 2.079A7.077 7.077 0 0 0-27 148.28c0 1.883.753 3.689 2.094 5.021a7.176 7.176 0 0 0 5.055 2.079 7.28 7.28 0 0 0 2.043-.301 12.378 12.378 0 0 0 5.367 4.502 12.475 12.475 0 0 0 11.09-.55 16.03 16.03 0 0 0 5.885 5.835A16.18 16.18 0 0 0 12.568 167c2.51.002 4.986-.581 7.23-1.7a16.046 16.046 0 0 0 5.686-4.747c.988.493 2.078.75 3.183.75a7.145 7.145 0 0 0 3.37-.838 16.103 16.103 0 0 0 10.448 3.83c2.3.002 4.575-.488 6.668-1.435a16.042 16.042 0 0 0 5.465-4.055 12.392 12.392 0 0 0 6.492 1.822 12.439 12.439 0 0 0 5.724-1.397 12.35 12.35 0 0 0 4.425-3.867c.197.017.394.031.592.031a7.172 7.172 0 0 0 5.055-2.08 7.074 7.074 0 0 0 2.094-5.02 7.075 7.075 0 0 0-2.091-5.018 7.176 7.176 0 0 0-5.051-2.082Z" fill="#fff"/><path d="M395.543 12.514c-.255 0-.509 0-.764.04a15.975 15.975 0 0 0-12.592-6.803 16.003 16.003 0 0 0-16.163-9.129A20.764 20.764 0 0 0 347.37-15a20.77 20.77 0 0 0-19.207 12.846 15.735 15.735 0 0 0-3.952 1.51 15.992 15.992 0 0 0-12.558-6.087 16.021 16.021 0 0 0-10.096 3.584 16.002 16.002 0 0 0-5.575 9.144 15.819 15.819 0 0 0-5.349-.066 15.956 15.956 0 0 0-10.774 6.96 9.138 9.138 0 0 0-2.636-.394 9.216 9.216 0 1 0 0 18.434 9.332 9.332 0 0 0 2.636-.391 16.012 16.012 0 0 0 21.231 5.13 20.757 20.757 0 0 0 17.96 10.345 20.748 20.748 0 0 0 16.664-8.37 9.188 9.188 0 0 0 8.454-.114 20.707 20.707 0 0 0 13.48 4.973 20.725 20.725 0 0 0 15.653-7.127 15.987 15.987 0 0 0 15.761.552 15.975 15.975 0 0 0 5.708-5.02c.255.021.51.04.764.04a9.224 9.224 0 0 0 9.224-9.218 9.216 9.216 0 0 0-9.215-9.217Z" fill="#E6F6FF"/></svg>
